X:1
T:Now we are free
T:Gladiator theme
T:main theme Gladiator film
T:Hans Zimmer arregment by Erjuli94
C:Hans Zimmer arregment by Erjuli94
L:1/8
M:2/4
K:C
V:1 treble nm="Piano" snm="Pno."
V:1
 z[Q:1/4=57] A df | G3 F | E4- | EG Ac | F3 E | D4- | DA df | G3 F | E4 | z E DC | D4- | D4 | %12
 z A df | G3 F | E4- | EG Ac | F3 E | D4- | DA df | G3 F | E4 | z E DC | D4- | D4 | z A de | %25
 f>e d2- | d2 ef | e4- | ec fg | a>g f2- | f2 ga | g4- | gg ga | ^a>=a g2- | gd de | f2 g2 | %36
 ad de | f>e d2 | z A de | f>e d2- | d2 ef | e4- | ec fg | a>g f2- | f2 ga | g4- | gg ga | %47
 ^a>=a g2- | gd de | f2 g2 | ad de | f>e d2 | z A de | f>e d2- | d2 ef | e4- | ec fg | a>g f2- | %58
 f2 ga | g4- | gg ga | ^a>=a g2- | gd de | f2 g2 | ad de | f>e d2 | z A df | G3 F | E4- | EG Ac | %70
 F3 E | D4- | DA df | G3 F | E4 | z E DC | D4- | D4 | z A df | G3 F | E4- | EG Ac | F3 E | D4- | %84
 D4 |] %85

